Newaita-dark/apps/16/com.github.babluboy.bookworm.svg

<svg height="16" viewBox="0 0 16 16" width="16" xmlns="http://www.w3.org/2000/svg" xmlns:xlink="http://www.w3.org/1999/xlink"><linearGradient id="a" gradientUnits="userSpaceOnUse" x1="7.93826" x2="7.93826" y1="14.0169685" y2="14.67849050002"><stop offset="0" stop-opacity=".27451"/><stop offset="1" stop-opacity="0"/></linearGradient><linearGradient id="b"><stop offset="0" stop-opacity=".313726"/><stop offset=".222222" stop-opacity=".27451"/><stop offset="1" stop-opacity="0"/></linearGradient><radialGradient id="c" cx="450.908936" cy="189.579361" gradientTransform="matrix(.00000009 -.0390662 -.0703192 -.00000005 25.073043 31.797666)" gradientUnits="userSpaceOnUse" r="21.166656" xlink:href="#b"/><radialGradient id="d" cx="450.908936" cy="189.579361" gradientTransform="matrix(-.00000009 .0390662 .0703192 .00000005 -9.196524 -3.76374)" gradientUnits="userSpaceOnUse" r="21.166656" xlink:href="#b"/><radialGradient id="e" cx="450.908936" cy="189.579361" gradientTransform="matrix(-.00000009 -.0390662 .0703192 -.00000005 -9.196524 31.797666)" gradientUnits="userSpaceOnUse" r="21.166656" xlink:href="#b"/><radialGradient id="f" cx="450.908936" cy="189.579361" gradientTransform="matrix(.00000009 .0390662 -.0703192 .00000005 25.073042 -3.76374)" gradientUnits="userSpaceOnUse" r="21.166656" xlink:href="#b"/><linearGradient id="g" gradientTransform="matrix(.0376748 0 0 .108706 -2.927007 16.820674)" gradientUnits="userSpaceOnUse" x1="306.916656" x2="305.954559" y1="-25.791676" y2="-141.414581"><stop offset="0" stop-color="#7e57c2"/><stop offset="1" stop-color="#9575cd"/></linearGradient><linearGradient id="h"><stop offset="0" stop-color="#424242"/><stop offset="1" stop-color="#616161"/></linearGradient><linearGradient id="i" gradientTransform="matrix(4.556143 0 0 13.146184 -353.972656 2034.180176)" gradientUnits="userSpaceOnUse" x1="165.484848" x2="165.484848" xlink:href="#h" y1="-25.791672" y2="-141.414581"/><linearGradient id="j" gradientUnits="userSpaceOnUse" x1="8.76516462503" x2="8.76516462503" y1="14.0169675" y2="1.77881375002"><stop offset="0" stop-color="#bdbdbd"/><stop offset="1" stop-color="#e0e0e0"/></linearGradient><linearGradient id="k" gradientUnits="userSpaceOnUse" x1="275.166305" x2="275.166305" xlink:href="#h" y1="233.49969318561" y2="-168.66647475188"/><linearGradient id="l" gradientUnits="userSpaceOnUse" x1="3.30760950003" x2="3.30760950003" xlink:href="#h" y1="5.25181134375" y2="4.59028956251"/><linearGradient id="m" gradientUnits="userSpaceOnUse" x1="3.30760950003" x2="3.30760950003" xlink:href="#h" y1="10.70936334375" y2="10.04784156251"/><path d="m3.96875 14.015625h7.9375v.664063h-7.9375zm0 0" fill="url(#a)"/><path d="m11.90625 14.015625h1.324219v-.660156h-1.324219zm0 0" fill="url(#c)"/><path d="m3.96875 14.015625h-1.324219v.664063h1.324219zm0 0" fill="url(#d)"/><path d="m3.96875 14.015625h-1.324219v-.660156h1.324219zm0 0" fill="url(#e)"/><path d="m11.90625 14.015625h1.324219v.664063h-1.324219zm0 0" fill="url(#f)"/><path d="m3.308594 1.449219h9.261718c.363282 0 .660157.296875.660157.660156v11.246094c0 .367187-.296875.660156-.660157.660156h-9.261718c-.367188 0-.664063-.292969-.664063-.660156v-11.246094c0-.363281.296875-.660156.664063-.660156zm0 0" fill="url(#g)"/><path d="m400.119292 175.258863c-44.405211 0-80.307296 35.42969-80.307296 79.8349v1360.027676c0 44.405211 35.902085 79.8349 80.307296 79.8349h119.988548v-1519.697476zm0 0" fill="url(#i)" stroke="#212121" stroke-linecap="round" stroke-width="11.338583" transform="scale(.00826902)"/><path d="m3.308594 14.015625c-.367188 0-.664063-.292969-.664063-.660156v-.082031c0 .367187.296875.660156.664063.660156h9.261718c.363282 0 .660157-.292969.660157-.660156v.082031c0 .367187-.296875.660156-.660157.660156zm0 0" fill-opacity=".196078"/><path d="m3.308594 1.449219c-.367188 0-.664063.292969-.664063.660156v.082031c0-.367187.296875-.660156.664063-.660156h9.261718c.363282 0 .660157.292969.660157.660156v-.082031c0-.367187-.296875-.660156-.660157-.660156zm0 0" fill="#e6e6e6" fill-opacity=".937239"/><path d="m3.308594 1.402344c-.394532 0-.710938.316406-.710938.707031v11.246094c0 .390625.316406.707031.710938.707031h9.261718c.390626 0 .707032-.316406.707032-.707031v-11.246094c0-.390625-.316406-.707031-.707032-.707031zm0 .09375h9.261718c.339844 0 .613282.273437.613282.613281v11.246094c0 .339843-.273438.613281-.613282.613281h-9.261718c-.34375 0-.617188-.273438-.617188-.613281v-11.246094c0-.339844.273438-.613281.617188-.613281zm0 0" fill="#212121"/><path d="m6.285156 5.417969h4.960938c.183594 0 .332031.148437.332031.328125v.664062c0 .183594-.148437.328125-.332031.328125h-4.960938c-.183594 0-.332031-.144531-.332031-.328125v-.664062c0-.179688.148437-.328125.332031-.328125zm0 0" fill="url(#j)"/><path d="m6.285156 5.417969c-.183594 0-.332031.148437-.332031.328125v.25c0-.183594.148437-.332032.332031-.332032h4.960938c.183594 0 .332031.148438.332031.332032v-.25c0-.179688-.148437-.328125-.332031-.328125zm0 0" fill="#fff" fill-opacity=".980392"/><path d="m5.953125 6.410156v.328125c0 .183594.148437.332031.332031.332031h4.960938c.183594 0 .332031-.148437.332031-.332031v-.328125c0 .183594-.148437.328125-.332031.328125h-4.960938c-.183594 0-.332031-.144531-.332031-.328125zm0 0" fill-opacity=".235294"/><path d="m201.105795-41.641555h158.734842c5.874439 0 10.623985 4.749547 10.623985 10.498997v21.247971c0 5.874439-4.749546 10.498998-10.623985 10.498998h-158.734842c-5.874439 0-10.623985-4.624559-10.623985-10.498998v-21.247971c0-5.74945 4.749546-10.498997 10.623985-10.498997zm0 0" fill="none" stroke="#212121" stroke-linecap="round" stroke-linejoin="round" stroke-width="3" transform="matrix(.031253 0 0 .031253 0 6.719392)"/><path d="m148.110856-147.506445v359.840637h243.476749c5.874439 0 10.623986-4.749547 10.623986-10.623986v-338.592666c0-5.874439-4.749547-10.623985-10.623986-10.623985zm0 0" style="fill:none;stroke-width:8;stroke-linecap:round;stroke-linejoin:round;stroke-dasharray:16.000002 16.000002;stroke-dashoffset:7.200001;stroke:url(#k)" transform="matrix(.031253 0 0 .031253 0 6.719392)"/><path d="m2.644531 4.589844h1.65625v.660156h-1.65625zm0 0" fill="url(#l)"/><path d="m2.644531 5.25v.25h1.65625v-.25zm0 0" fill-opacity=".235294"/><path d="m2.644531 4.589844v.164062h1.65625v-.164062zm0 0" fill="#fff" fill-opacity=".392157"/><path d="m84.616935-20.514265h52.994939v21.122983h-52.994939zm0 0" fill="none" stroke="#212121" stroke-linecap="round" stroke-linejoin="round" stroke-width="3" transform="matrix(.031253 0 0 .031253 0 5.230976)"/><path d="m2.644531 10.046875h1.65625v.664063h-1.65625zm0 0" fill="url(#m)"/><path d="m2.644531 10.710938v.246093h1.65625v-.246093zm0 0" fill-opacity=".235294"/><path d="m2.644531 10.046875v.167969h1.65625v-.167969zm0 0" fill="#fff" fill-opacity=".392157"/><path d="m84.616935-20.530951h52.994939v21.247971h-52.994939zm0 0" fill="none" stroke="#212121" stroke-linecap="round" stroke-linejoin="round" stroke-width="3" transform="matrix(.031253 0 0 .031253 0 10.688528)"/></svg>

<?xml version="1.0" encoding="UTF-8"?>
<svg xmlns="http://www.w3.org/2000/svg" xmlns:xlink="http://www.w3.org/1999/xlink" width="16px" height="16px" viewBox="0 0 16 16" version="1.1">
<defs>
<linearGradient id="linear0" gradientUnits="userSpaceOnUse" x1="254" y1="233.5" x2="254" y2="254.666672" gradientTransform="matrix(0.031253,0,0,0.031253,-0.00000190753,6.719393)">
<stop offset="0" style="stop-color:rgb(0%,0%,0%);stop-opacity:0.27451;"/>
<stop offset="1" style="stop-color:rgb(0%,0%,0%);stop-opacity:0;"/>
</linearGradient>
<radialGradient id="radial0" gradientUnits="userSpaceOnUse" cx="450.908936" cy="189.579361" fx="450.908936" fy="189.579361" r="21.166656" gradientTransform="matrix(0.0000000870852,-0.0390662,-0.0703192,-0.0000000507693,25.073043,31.797666)">
<stop offset="0" style="stop-color:rgb(0%,0%,0%);stop-opacity:0.313726;"/>
<stop offset="0.222222" style="stop-color:rgb(0%,0%,0%);stop-opacity:0.27451;"/>
<stop offset="1" style="stop-color:rgb(0%,0%,0%);stop-opacity:0;"/>
</radialGradient>
<radialGradient id="radial1" gradientUnits="userSpaceOnUse" cx="450.908936" cy="189.579361" fx="450.908936" fy="189.579361" r="21.166656" gradientTransform="matrix(-0.0000000870852,0.0390662,0.0703192,0.0000000507693,-9.196524,-3.76374)">
<stop offset="0" style="stop-color:rgb(0%,0%,0%);stop-opacity:0.313726;"/>
<stop offset="0.222222" style="stop-color:rgb(0%,0%,0%);stop-opacity:0.27451;"/>
<stop offset="1" style="stop-color:rgb(0%,0%,0%);stop-opacity:0;"/>
</radialGradient>
<radialGradient id="radial2" gradientUnits="userSpaceOnUse" cx="450.908936" cy="189.579361" fx="450.908936" fy="189.579361" r="21.166656" gradientTransform="matrix(-0.0000000870852,-0.0390662,0.0703192,-0.0000000507693,-9.196524,31.797666)">
<stop offset="0" style="stop-color:rgb(0%,0%,0%);stop-opacity:0.313726;"/>
<stop offset="0.222222" style="stop-color:rgb(0%,0%,0%);stop-opacity:0.27451;"/>
<stop offset="1" style="stop-color:rgb(0%,0%,0%);stop-opacity:0;"/>
</radialGradient>
<radialGradient id="radial3" gradientUnits="userSpaceOnUse" cx="450.908936" cy="189.579361" fx="450.908936" fy="189.579361" r="21.166656" gradientTransform="matrix(0.0000000870852,0.0390662,-0.0703192,0.0000000507693,25.073042,-3.76374)">
<stop offset="0" style="stop-color:rgb(0%,0%,0%);stop-opacity:0.313726;"/>
<stop offset="0.222222" style="stop-color:rgb(0%,0%,0%);stop-opacity:0.27451;"/>
<stop offset="1" style="stop-color:rgb(0%,0%,0%);stop-opacity:0;"/>
</radialGradient>
<linearGradient id="linear1" gradientUnits="userSpaceOnUse" x1="306.916656" y1="-25.791676" x2="305.954559" y2="-141.414581" gradientTransform="matrix(0.0376748,0,0,0.108706,-2.927007,16.820674)">
<stop offset="0" style="stop-color:rgb(49.411765%,34.117648%,76.078433%);stop-opacity:1;"/>
<stop offset="1" style="stop-color:rgb(58.431375%,45.882353%,80.392158%);stop-opacity:1;"/>
</linearGradient>
<linearGradient id="linear2" gradientUnits="userSpaceOnUse" x1="165.484848" y1="-25.791672" x2="165.484848" y2="-141.414581" gradientTransform="matrix(4.556143,0,0,13.146184,-353.972656,2034.180176)">
<stop offset="0" style="stop-color:rgb(25.882354%,25.882354%,25.882354%);stop-opacity:1;"/>
<stop offset="1" style="stop-color:rgb(38.039216%,38.039216%,38.039216%);stop-opacity:1;"/>
</linearGradient>
<linearGradient id="linear3" gradientUnits="userSpaceOnUse" x1="280.458344" y1="233.5" x2="280.458344" y2="-158.083328" gradientTransform="matrix(0.031253,0,0,0.031253,0,6.719392)">
<stop offset="0" style="stop-color:rgb(74.117649%,74.117649%,74.117649%);stop-opacity:1;"/>
<stop offset="1" style="stop-color:rgb(87.843138%,87.843138%,87.843138%);stop-opacity:1;"/>
</linearGradient>
<linearGradient id="linear4" gradientUnits="userSpaceOnUse" x1="1040" y1="1695.118164" x2="1040" y2="175.118134" gradientTransform="matrix(0.264583,0,0,0.264583,-0.0000153333,-214.999756)">
<stop offset="0" style="stop-color:rgb(25.882354%,25.882354%,25.882354%);stop-opacity:1;"/>
<stop offset="1" style="stop-color:rgb(38.039216%,38.039216%,38.039216%);stop-opacity:1;"/>
</linearGradient>
<linearGradient id="linear5" gradientUnits="userSpaceOnUse" x1="105.833344" y1="0.666667" x2="105.833344" y2="-20.499998" gradientTransform="matrix(0.031253,0,0,0.031253,-0.000000479212,5.230976)">
<stop offset="0" style="stop-color:rgb(25.882354%,25.882354%,25.882354%);stop-opacity:1;"/>
<stop offset="1" style="stop-color:rgb(38.039216%,38.039216%,38.039216%);stop-opacity:1;"/>
</linearGradient>
<linearGradient id="linear6" gradientUnits="userSpaceOnUse" x1="105.833344" y1="0.666667" x2="105.833344" y2="-20.499998" gradientTransform="matrix(0.031253,0,0,0.031253,-0.000000479212,10.688528)">
<stop offset="0" style="stop-color:rgb(25.882354%,25.882354%,25.882354%);stop-opacity:1;"/>
<stop offset="1" style="stop-color:rgb(38.039216%,38.039216%,38.039216%);stop-opacity:1;"/>
</linearGradient>
</defs>
<g id="surface1">
<path style=" stroke:none;fill-rule:nonzero;fill:url(#linear0);" d="M 3.96875 14.015625 L 11.90625 14.015625 L 11.90625 14.679688 L 3.96875 14.679688 Z M 3.96875 14.015625 "/>
<path style=" stroke:none;fill-rule:nonzero;fill:url(#radial0);" d="M 11.90625 14.015625 L 13.230469 14.015625 L 13.230469 13.355469 L 11.90625 13.355469 Z M 11.90625 14.015625 "/>
<path style=" stroke:none;fill-rule:nonzero;fill:url(#radial1);" d="M 3.96875 14.015625 L 2.644531 14.015625 L 2.644531 14.679688 L 3.96875 14.679688 Z M 3.96875 14.015625 "/>
<path style=" stroke:none;fill-rule:nonzero;fill:url(#radial2);" d="M 3.96875 14.015625 L 2.644531 14.015625 L 2.644531 13.355469 L 3.96875 13.355469 Z M 3.96875 14.015625 "/>
<path style=" stroke:none;fill-rule:nonzero;fill:url(#radial3);" d="M 11.90625 14.015625 L 13.230469 14.015625 L 13.230469 14.679688 L 11.90625 14.679688 Z M 11.90625 14.015625 "/>
<path style=" stroke:none;fill-rule:nonzero;fill:url(#linear1);" d="M 3.308594 1.449219 L 12.570312 1.449219 C 12.933594 1.449219 13.230469 1.746094 13.230469 2.109375 L 13.230469 13.355469 C 13.230469 13.722656 12.933594 14.015625 12.570312 14.015625 L 3.308594 14.015625 C 2.941406 14.015625 2.644531 13.722656 2.644531 13.355469 L 2.644531 2.109375 C 2.644531 1.746094 2.941406 1.449219 3.308594 1.449219 Z M 3.308594 1.449219 "/>
<path style="fill-rule:nonzero;fill:url(#linear2);stroke-width:11.338583;stroke-linecap:round;stroke-linejoin:miter;stroke:rgb(12.941177%,12.941177%,12.941177%);stroke-opacity:1;stroke-miterlimit:4;" d="M 400.119292 175.258863 C 355.714081 175.258863 319.811996 210.688553 319.811996 255.093763 L 319.811996 1615.121439 C 319.811996 1659.52665 355.714081 1694.956339 400.119292 1694.956339 L 520.10784 1694.956339 L 520.10784 175.258863 Z M 400.119292 175.258863 " transform="matrix(0.00826902,0,0,0.00826902,0,0)"/>
<path style=" stroke:none;fill-rule:nonzero;fill:rgb(0%,0%,0%);fill-opacity:0.196078;" d="M 3.308594 14.015625 C 2.941406 14.015625 2.644531 13.722656 2.644531 13.355469 L 2.644531 13.273438 C 2.644531 13.640625 2.941406 13.933594 3.308594 13.933594 L 12.570312 13.933594 C 12.933594 13.933594 13.230469 13.640625 13.230469 13.273438 L 13.230469 13.355469 C 13.230469 13.722656 12.933594 14.015625 12.570312 14.015625 Z M 3.308594 14.015625 "/>
<path style=" stroke:none;fill-rule:nonzero;fill:rgb(90.196079%,90.196079%,90.196079%);fill-opacity:0.937239;" d="M 3.308594 1.449219 C 2.941406 1.449219 2.644531 1.742188 2.644531 2.109375 L 2.644531 2.191406 C 2.644531 1.824219 2.941406 1.53125 3.308594 1.53125 L 12.570312 1.53125 C 12.933594 1.53125 13.230469 1.824219 13.230469 2.191406 L 13.230469 2.109375 C 13.230469 1.742188 12.933594 1.449219 12.570312 1.449219 Z M 3.308594 1.449219 "/>
<path style=" stroke:none;fill-rule:nonzero;fill:rgb(12.941177%,12.941177%,12.941177%);fill-opacity:1;" d="M 3.308594 1.402344 C 2.914062 1.402344 2.597656 1.71875 2.597656 2.109375 L 2.597656 13.355469 C 2.597656 13.746094 2.914062 14.0625 3.308594 14.0625 L 12.570312 14.0625 C 12.960938 14.0625 13.277344 13.746094 13.277344 13.355469 L 13.277344 2.109375 C 13.277344 1.71875 12.960938 1.402344 12.570312 1.402344 Z M 3.308594 1.496094 L 12.570312 1.496094 C 12.910156 1.496094 13.183594 1.769531 13.183594 2.109375 L 13.183594 13.355469 C 13.183594 13.695312 12.910156 13.96875 12.570312 13.96875 L 3.308594 13.96875 C 2.964844 13.96875 2.691406 13.695312 2.691406 13.355469 L 2.691406 2.109375 C 2.691406 1.769531 2.964844 1.496094 3.308594 1.496094 Z M 3.308594 1.496094 "/>
<path style=" stroke:none;fill-rule:nonzero;fill:url(#linear3);" d="M 6.285156 5.417969 L 11.246094 5.417969 C 11.429688 5.417969 11.578125 5.566406 11.578125 5.746094 L 11.578125 6.410156 C 11.578125 6.59375 11.429688 6.738281 11.246094 6.738281 L 6.285156 6.738281 C 6.101562 6.738281 5.953125 6.59375 5.953125 6.410156 L 5.953125 5.746094 C 5.953125 5.566406 6.101562 5.417969 6.285156 5.417969 Z M 6.285156 5.417969 "/>
<path style=" stroke:none;fill-rule:nonzero;fill:rgb(100%,100%,100%);fill-opacity:0.980392;" d="M 6.285156 5.417969 C 6.101562 5.417969 5.953125 5.566406 5.953125 5.746094 L 5.953125 5.996094 C 5.953125 5.8125 6.101562 5.664062 6.285156 5.664062 L 11.246094 5.664062 C 11.429688 5.664062 11.578125 5.8125 11.578125 5.996094 L 11.578125 5.746094 C 11.578125 5.566406 11.429688 5.417969 11.246094 5.417969 Z M 6.285156 5.417969 "/>
<path style=" stroke:none;fill-rule:nonzero;fill:rgb(0%,0%,0%);fill-opacity:0.235294;" d="M 5.953125 6.410156 L 5.953125 6.738281 C 5.953125 6.921875 6.101562 7.070312 6.285156 7.070312 L 11.246094 7.070312 C 11.429688 7.070312 11.578125 6.921875 11.578125 6.738281 L 11.578125 6.410156 C 11.578125 6.59375 11.429688 6.738281 11.246094 6.738281 L 6.285156 6.738281 C 6.101562 6.738281 5.953125 6.59375 5.953125 6.410156 Z M 5.953125 6.410156 "/>
<path style="fill:none;stroke-width:3;stroke-linecap:round;stroke-linejoin:round;stroke:rgb(12.941177%,12.941177%,12.941177%);stroke-opacity:1;stroke-miterlimit:4;" d="M 201.105795 -41.641555 L 359.840637 -41.641555 C 365.715076 -41.641555 370.464622 -36.892008 370.464622 -31.142558 L 370.464622 -9.894587 C 370.464622 -4.020148 365.715076 0.604411 359.840637 0.604411 L 201.105795 0.604411 C 195.231356 0.604411 190.48181 -4.020148 190.48181 -9.894587 L 190.48181 -31.142558 C 190.48181 -36.892008 195.231356 -41.641555 201.105795 -41.641555 Z M 201.105795 -41.641555 " transform="matrix(0.031253,0,0,0.031253,0,6.719392)"/>
<path style="fill:none;stroke-width:8;stroke-linecap:round;stroke-linejoin:round;stroke:url(#linear4);stroke-dasharray:16.000002,16.000002;stroke-dashoffset:7.200001;stroke-miterlimit:4;" d="M 148.110856 -147.506445 L 148.110856 212.334192 L 391.587605 212.334192 C 397.462044 212.334192 402.211591 207.584645 402.211591 201.710206 L 402.211591 -136.88246 C 402.211591 -142.756899 397.462044 -147.506445 391.587605 -147.506445 Z M 148.110856 -147.506445 " transform="matrix(0.031253,0,0,0.031253,0,6.719392)"/>
<path style=" stroke:none;fill-rule:nonzero;fill:url(#linear5);" d="M 2.644531 4.589844 L 4.300781 4.589844 L 4.300781 5.25 L 2.644531 5.25 Z M 2.644531 4.589844 "/>
<path style=" stroke:none;fill-rule:nonzero;fill:rgb(0%,0%,0%);fill-opacity:0.235294;" d="M 2.644531 5.25 L 2.644531 5.5 L 4.300781 5.5 L 4.300781 5.25 Z M 2.644531 5.25 "/>
<path style=" stroke:none;fill-rule:nonzero;fill:rgb(100%,100%,100%);fill-opacity:0.392157;" d="M 2.644531 4.589844 L 2.644531 4.753906 L 4.300781 4.753906 L 4.300781 4.589844 Z M 2.644531 4.589844 "/>
<path style="fill:none;stroke-width:3;stroke-linecap:round;stroke-linejoin:round;stroke:rgb(12.941177%,12.941177%,12.941177%);stroke-opacity:1;stroke-miterlimit:4;" d="M 84.616935 -20.514265 L 137.611874 -20.514265 L 137.611874 0.608718 L 84.616935 0.608718 Z M 84.616935 -20.514265 " transform="matrix(0.031253,0,0,0.031253,-0.000000479212,5.230976)"/>
<path style=" stroke:none;fill-rule:nonzero;fill:url(#linear6);" d="M 2.644531 10.046875 L 4.300781 10.046875 L 4.300781 10.710938 L 2.644531 10.710938 Z M 2.644531 10.046875 "/>
<path style=" stroke:none;fill-rule:nonzero;fill:rgb(0%,0%,0%);fill-opacity:0.235294;" d="M 2.644531 10.710938 L 2.644531 10.957031 L 4.300781 10.957031 L 4.300781 10.710938 Z M 2.644531 10.710938 "/>
<path style=" stroke:none;fill-rule:nonzero;fill:rgb(100%,100%,100%);fill-opacity:0.392157;" d="M 2.644531 10.046875 L 2.644531 10.214844 L 4.300781 10.214844 L 4.300781 10.046875 Z M 2.644531 10.046875 "/>
<path style="fill:none;stroke-width:3;stroke-linecap:round;stroke-linejoin:round;stroke:rgb(12.941177%,12.941177%,12.941177%);stroke-opacity:1;stroke-miterlimit:4;" d="M 84.616935 -20.530951 L 137.611874 -20.530951 L 137.611874 0.71702 L 84.616935 0.71702 Z M 84.616935 -20.530951 " transform="matrix(0.031253,0,0,0.031253,-0.000000479212,10.688528)"/>
</g>
</svg>
